packages/gestalt-icons-android/vr-theme/ic_vr_x_gestalt.svg

<svg width="24" height="24" viewBox="0 0 24 24" fill="none" xmlns="http://www.w3.org/2000/svg">
<path d="M14.2339 10.1624L22.9764 0H20.9047L13.3137 8.82384L7.2507 0H0.257812L9.42618 13.3432L0.257812 24H2.3296L10.3459 14.6817L16.7489 24H23.7418L14.2339 10.1624ZM3.0761 1.55962H6.25825L20.9057 22.5113H17.7235L3.0761 1.55962Z" fill="black"/>
</svg>

<svg xmlns="http://www.w3.org/2000/svg" width="24" height="24"><path d="M14.23 10.16 22.98 0H20.9l-7.59 8.82L7.25 0h-7l9.18 13.34L.26 24h2.07l8.02-9.32 6.4 9.32h7zM3.08 1.56h3.18L20.9 22.51h-3.19z"/></svg>
